X:0415
T:To Rodney we will go.
N:right repeat mark printed at the end of the first part
N:#1162 is a simplified set of the same thing in the same key
M:2/4
L:1/8
Q:1/2=72
I: :: ::
Z:Jack Campin * www.campin.me.uk * 2009
K:G
D|(GB).B.B|(cB)(AG)|(Bd).d.d   | d2 z      \
B| cecA   | BdBG   | cAGF      | G2-G    :|
c| Bdge   | fddc   | Bdge      | f2(de/f/)|\
  (gf)(ed)|(ed)(cB)| cd (ef/g/)|Td2 B2    |
  (GB).B.B|(cB)(AG)|(GB).d.d   |Td2 z      \
B| cecA   | BdBG   | cAGF      | G3      :|

